app/public/logos/hydra.svg

<svg xmlns="http://www.w3.org/2000/svg" width="350pt" height="350pt" style="isolation:isolate" viewBox="0 0 350 350"><defs><clipPath id="a"><path d="M0 0h350v350H0z"/></clipPath></defs><g clip-path="url(#a)"><path d="M0 0h350v350H0z" style="fill:#e53f77"/><path fill="#FFFCFD" d="M58.102 156.496c42.057-39.629 90.371-48.458 144.771-32.876-14.078-13.711-30.847-22.28-49.789-24.028-18.735-1.729-37.753-.378-53.983-.378 16.667-16.985 35.464-36.947 55.192-55.942 11.691-11.257 30.418-10.925 42.256.387 20.15 19.254 39.974 38.884 59.203 59.053 13.988 14.671 9.854 36.214-8.082 45.969-18.874 10.267-39.492 14.283-60.679 15.937-2.51.196-5.031.255-7.393 1.274 42.411 13.816 80.034 4.85 113.224-24.51 20.952 13.25 22.485 28.911 5.273 46.63-39.238 40.393-85.774 54.417-140.545 39.843-3.032-.807-6.319-.653-9.638.067C179.452 253.103 223.318 257.556 262 246c.752 1.356-.752-1.356 0 0-6.085 5.101-18.71 14.776-24.417 20.269-12.825 12.341-25.239 25.108-37.946 37.574-15.18 14.893-33.841 14.89-49.039-.091-17.939-17.683-35.833-35.416-53.519-53.351-17.2-17.444-13.548-39.668 8.504-50.224 20.54-9.832 41.956-15.913 65.133-11.428 1.177.227 2.516-.382 3.976-.636-17.32-20.647-73.856-10.506-117.84 20.789-20.87-15.113-22.138-29.056-4.267-46.936 1.662-1.663 3.335-3.315 5.517-5.47"/></g></svg>

<?xml version="1.0" encoding="UTF-8" standalone="no"?><!-- Generator: Gravit.io --><svg xmlns="http://www.w3.org/2000/svg" xmlns:xlink="http://www.w3.org/1999/xlink" style="isolation:isolate" viewBox="0 0 350 350" width="350pt" height="350pt"><defs><clipPath id="_clipPath_Ph5vLMGhF1hNJkUojWfTuneLl1x8zenX"><rect width="350" height="350"/></clipPath></defs><g clip-path="url(#_clipPath_Ph5vLMGhF1hNJkUojWfTuneLl1x8zenX)"><rect width="350" height="350" style="fill:rgb(229,63,119)"/><g><path d=" M 58.102 156.496 C 100.159 116.867 148.473 108.038 202.873 123.62 C 188.795 109.909 172.026 101.34 153.084 99.592 C 134.349 97.863 115.331 99.214 99.101 99.214 C 115.768 82.229 134.565 62.267 154.293 43.272 C 165.984 32.015 184.711 32.347 196.549 43.659 C 216.699 62.913 236.523 82.543 255.752 102.712 C 269.74 117.383 265.606 138.926 247.67 148.681 C 228.796 158.948 208.178 162.964 186.991 164.618 C 184.481 164.814 181.96 164.873 179.598 165.892 C 222.009 179.708 259.632 170.742 292.822 141.382 C 313.774 154.632 315.307 170.293 298.095 188.012 C 258.857 228.405 212.321 242.429 157.55 227.855 C 154.518 227.048 151.231 227.202 147.912 227.922 C 179.452 253.103 223.318 257.556 262 246 C 262.752 247.356 261.248 244.644 262 246 C 255.915 251.101 243.29 260.776 237.583 266.269 C 224.758 278.61 212.344 291.377 199.637 303.843 C 184.457 318.736 165.796 318.733 150.598 303.752 C 132.659 286.069 114.765 268.336 97.079 250.401 C 79.879 232.957 83.531 210.733 105.583 200.177 C 126.123 190.345 147.539 184.264 170.716 188.749 C 171.893 188.976 173.232 188.367 174.692 188.113 C 157.372 167.466 100.836 177.607 56.852 208.902 C 35.982 193.789 34.714 179.846 52.585 161.966 C 54.247 160.303 55.92 158.651 58.102 156.496 Z " fill="rgb(255,252,253)"/></g></g></svg>
